symbols/web/electric_car/materialsymbolssharp/electric_car_wght500fill1_48px.svg

<svg xmlns="http://www.w3.org/2000/svg" height="48" width="48"><path d="M5.7 34.35V16.3l4.85-14.6H37.5l4.8 14.6v18.05h-4.35v-4.2H10v4.2Zm4.6-21.05h27.45L35 5.15H13Zm4.05 11q1.15 0 1.925-.8.775-.8.775-1.9 0-1.2-.8-2t-1.9-.8q-1.15 0-1.975.8-.825.8-.825 1.95t.8 1.95q.8.8 2 .8Zm19.35 0q1.15 0 1.975-.8.825-.8.825-1.9 0-1.2-.8-2t-2-.8q-1.15 0-1.925.8-.775.8-.775 1.95t.8 1.95q.8.8 1.9.8Zm-7.85 21.8-11.4-6h7.5v-3.85l11.6 5.8h-7.7Z"/></svg>

<svg xmlns="http://www.w3.org/2000/svg" height="48" width="48"><path d="M5.7 34.35V16.3L10.55 1.7H37.5L42.3 16.3V34.35H37.95V30.15H10V34.35ZM10.3 13.3H37.75L35 5.15H13ZM14.35 24.3Q15.5 24.3 16.275 23.5Q17.05 22.7 17.05 21.6Q17.05 20.4 16.25 19.6Q15.45 18.8 14.35 18.8Q13.2 18.8 12.375 19.6Q11.55 20.4 11.55 21.55Q11.55 22.7 12.35 23.5Q13.15 24.3 14.35 24.3ZM33.7 24.3Q34.85 24.3 35.675 23.5Q36.5 22.7 36.5 21.6Q36.5 20.4 35.7 19.6Q34.9 18.8 33.7 18.8Q32.55 18.8 31.775 19.6Q31 20.4 31 21.55Q31 22.7 31.8 23.5Q32.6 24.3 33.7 24.3ZM25.85 46.1 14.45 40.1H21.95V36.25L33.55 42.05H25.85Z"/></svg>
